resources/haticons/SVG/system_update.svg

<!-- Generated by IcoMoon.io -->
<svg version="1.1" xmlns="http://www.w3.org/2000/svg" width="24" height="24" viewBox="0 0 24 24">
<title>system_update</title>
<path d="M15.984 12.984l-3.984 4.031-3.984-4.031h3v-4.969h1.969v4.969h3zM17.016 18.984v-13.969h-10.031v13.969h10.031zM17.016 1.031q0.797 0 1.383 0.586t0.586 1.383v18q0 0.797-0.586 1.406t-1.383 0.609h-10.031q-0.797 0-1.383-0.609t-0.586-1.406v-18q0-0.797 0.586-1.406t1.383-0.609z"></path>
</svg>

<svg xmlns="http://www.w3.org/2000/svg" width="24" height="24"><path d="M15.984 12.984L12 17.015l-3.984-4.031h3V8.015h1.969v4.969h3zm1.032 6V5.015H6.985v13.969h10.031zm0-17.953q.797 0 1.383.586T18.985 3v18q0 .797-.586 1.406t-1.383.609H6.985q-.797 0-1.383-.609T5.016 21V3q0-.797.586-1.406T6.985.985z"/></svg>
